img/header/shop-bag2.svg

<svg width="56" height="56" viewBox="0 0 56 56" fill="none" xmlns="http://www.w3.org/2000/svg">
<circle cx="28" cy="28" r="28" fill="white"/>
<path d="M28.3233 13.0003C24.7548 12.966 21.8038 16.0197 21.8038 19.588V20.5487H18.3725C17.6176 20.5487 17 21.1663 17 21.9212V37.2582C17 40.655 19.7794 43.4342 23.1764 43.4342H33.2301C36.6271 43.4342 39.4065 40.655 39.4065 37.2582V21.8869C39.4065 21.132 38.7889 20.5144 38.034 20.5144H34.6027V19.3821C34.637 15.8481 31.8233 13.0346 28.3233 13.0003ZM24.5489 19.3478C24.5489 17.3235 26.1959 15.6766 28.2204 15.6766C30.2449 15.6766 31.8919 17.3235 31.8919 19.3478V20.4801H24.5489V19.3478Z" fill="#25394E"/>
<circle cx="35" cy="39" r="9" fill="#FFD32E"/>
<path d="M36.37 44V35.6H35.014C34.966 35.92 34.866 36.188 34.714 36.404C34.562 36.62 34.374 36.796 34.15 36.932C33.934 37.06 33.686 37.152 33.406 37.208C33.134 37.256 32.85 37.276 32.554 37.268V38.552H34.666V44H36.37Z" fill="white"/>
</svg>

<svg width="56" height="56" fill="none" xmlns="http://www.w3.org/2000/svg"><circle cx="28" cy="28" r="28" fill="#fff"/><path d="M28.323 13c-3.568-.034-6.52 3.02-6.52 6.588v.96h-3.43c-.755 0-1.373.618-1.373 1.373v15.337c0 3.397 2.78 6.176 6.176 6.176H33.23c3.397 0 6.177-2.779 6.177-6.176V21.887c0-.755-.618-1.373-1.373-1.373h-3.431v-1.132c.034-3.534-2.78-6.347-6.28-6.382zm-3.774 6.348a3.675 3.675 0 013.671-3.671 3.675 3.675 0 013.672 3.67v1.133h-7.343v-1.132z" fill="#25394E"/><circle cx="35" cy="39" r="9" fill="#FFD32E"/><path d="M36.37 44v-8.4h-1.356c-.048.32-.148.588-.3.804a1.87 1.87 0 01-.564.528c-.216.128-.464.22-.744.276a4.235 4.235 0 01-.852.06v1.284h2.112V44h1.704z" fill="#fff"/></svg>
